Adwaita++/apps/16/scheda-video.svg

<svg height="16" width="16" xmlns="http://www.w3.org/2000/svg">
  <path d="m.49278857 0c-.27273862 0-.49278857.22005012-.49278857.49278843v3.44471137 8.1249992 3.444712c0 .272739.22004995.492789.49278857.492789h.49278849c.27273844 0 .49278834-.22005.49278834-.492789v-1.968749h1.8701923v.877404c0 .226477.1821763.408653.4086539.408653h8.4855764c.226479 0 .411058-.182176.411058-.408653v-.877404h1.870192c.818215 0 1.475962-.657747 1.475962-1.475963v-8.1249992c0-.818215-.657747-1.4759615-1.475962-1.4759615h-13.0456726v-1.96874987c0-.27273831-.2200499-.49278843-.49278834-.49278843zm10.31490443 4.6153841a3.3846154 3.3846154 0 0 1 3.384614 3.3846159 3.3846154 3.3846154 0 0 1 -3.384614 3.384615 3.3846154 3.3846154 0 0 1 -3.3846161-3.384615 3.3846154 3.3846154 0 0 1 3.3846161-3.3846159zm-8.4735583 1.5384621h3.6923076v.9855767h-3.6923076zm8.4735583 0a1.8461538 1.8461538 0 0 0 -1.8461545 1.8461538 1.8461538 1.8461538 0 0 0 1.8461545 1.8461543 1.8461538 1.8461538 0 0 0 1.846153-1.8461543 1.8461538 1.8461538 0 0 0 -1.846153-1.8461538zm-8.4735583 2.7067309h3.6923076v.9855772h-3.6923076zm1.7403846 4.6778849h.6802885c.016364 0 .028846.01248.028846.02884v.680288c0 .01637-.012481.02885-.028846.02885h-.6802885c-.016365 0-.028846-.01248-.028846-.02885v-.680288c0-.01637.012481-.02884.028846-.02884zm1.4350961 0h.6802885c.016364 0 .028846.01248.028846.02884v.680288c0 .01637-.012482.02885-.028846.02885h-.6802885c-.016365 0-.028846-.01248-.028846-.02885v-.68029c-.0000005-.01637.012481-.02885.028846-.02885zm1.4350961 0h.6778847c.016365 0 .03125.01248.03125.02884v.680288c0 .01637-.014886.02885-.03125.02885h-.6778847c-.016365 0-.03125-.01248-.03125-.02885v-.680288c0-.01637.014886-.02884.03125-.02884zm1.4326926 0h.6802882c.016365 0 .028846.01248.028846.02884v.680288c0 .01637-.012481.02885-.028846.02885h-.6802882c-.016365 0-.028847-.01248-.028847-.02885v-.680288c0-.01637.012481-.02884.028847-.02884zm1.4350961 0h.6802878c.01637 0 .02885.01248.02885.02884v.680288c0 .01637-.01248.02885-.02885.02885h-.6802878c-.016365 0-.028845-.01248-.028845-.02885v-.680288c0-.01637.01248-.02884.028845-.02884zm1.4350958 0h.680288c.01637 0 .02885.01248.02885.02884v.680288c0 .01637-.01248.02885-.02885.02885h-.680288c-.01637 0-.02885-.01248-.02885-.02885v-.680288c0-.01637.01248-.02884.02885-.02884z" fill="#444"/>
</svg>

<svg xmlns="http://www.w3.org/2000/svg" width="16" height="16" version="1.1">
 <path fill="#444" d="M 0.49278857,0 C 0.22004995,0 0,0.22005012 0,0.49278843 V 3.9374998 12.062499 15.507211 C 0,15.77995 0.22004995,16 0.49278857,16 H 0.98557706 C 1.2583155,16 1.4783654,15.77995 1.4783654,15.507211 v -1.968749 h 1.8701923 v 0.877404 c 0,0.226477 0.1821763,0.408653 0.4086539,0.408653 h 8.4855764 c 0.226479,0 0.411058,-0.182176 0.411058,-0.408653 v -0.877404 h 1.870192 C 15.342253,13.538462 16,12.880715 16,12.062499 V 3.9374998 C 16,3.1192848 15.342253,2.4615383 14.524038,2.4615383 H 1.4783654 V 0.49278843 C 1.4783654,0.22005012 1.2583155,0 0.98557706,0 Z M 10.807693,4.6153841 A 3.3846154,3.3846154 0 0 1 14.192307,8 3.3846154,3.3846154 0 0 1 10.807693,11.384615 3.3846154,3.3846154 0 0 1 7.4230769,8 3.3846154,3.3846154 0 0 1 10.807693,4.6153841 Z M 2.3341347,6.1538462 H 6.0264423 V 7.1394229 H 2.3341347 Z m 8.4735583,0 A 1.8461538,1.8461538 0 0 0 8.9615385,8 1.8461538,1.8461538 0 0 0 10.807693,9.8461543 1.8461538,1.8461538 0 0 0 12.653846,8 1.8461538,1.8461538 0 0 0 10.807693,6.1538462 Z M 2.3341347,8.8605771 H 6.0264423 V 9.8461543 H 2.3341347 Z m 1.7403846,4.6778849 h 0.6802885 c 0.016364,0 0.028846,0.01248 0.028846,0.02884 v 0.680288 c 0,0.01637 -0.012481,0.02885 -0.028846,0.02885 H 4.0745193 c -0.016365,0 -0.028846,-0.01248 -0.028846,-0.02885 v -0.680288 c 0,-0.01637 0.012481,-0.02884 0.028846,-0.02884 z m 1.4350961,0 h 0.6802885 c 0.016364,0 0.028846,0.01248 0.028846,0.02884 v 0.680288 c 0,0.01637 -0.012482,0.02885 -0.028846,0.02885 H 5.5096154 c -0.016365,0 -0.028846,-0.01248 -0.028846,-0.02885 V 13.5673 c -5e-7,-0.01637 0.012481,-0.02885 0.028846,-0.02885 z m 1.4350961,0 h 0.6778847 c 0.016365,0 0.03125,0.01248 0.03125,0.02884 v 0.680288 c 0,0.01637 -0.014886,0.02885 -0.03125,0.02885 H 6.9447115 c -0.016365,0 -0.03125,-0.01248 -0.03125,-0.02885 v -0.680288 c 0,-0.01637 0.014886,-0.02884 0.03125,-0.02884 z m 1.4326926,0 h 0.6802882 c 0.016365,0 0.028846,0.01248 0.028846,0.02884 v 0.680288 c 0,0.01637 -0.012481,0.02885 -0.028846,0.02885 H 8.3774041 c -0.016365,0 -0.028847,-0.01248 -0.028847,-0.02885 v -0.680288 c 0,-0.01637 0.012481,-0.02884 0.028847,-0.02884 z m 1.4350961,0 h 0.6802878 c 0.01637,0 0.02885,0.01248 0.02885,0.02884 v 0.680288 c 0,0.01637 -0.01248,0.02885 -0.02885,0.02885 H 9.8125002 c -0.016365,0 -0.028845,-0.01248 -0.028845,-0.02885 v -0.680288 c 0,-0.01637 0.01248,-0.02884 0.028845,-0.02884 z m 1.4350958,0 h 0.680288 c 0.01637,0 0.02885,0.01248 0.02885,0.02884 v 0.680288 c 0,0.01637 -0.01248,0.02885 -0.02885,0.02885 h -0.680288 c -0.01637,0 -0.02885,-0.01248 -0.02885,-0.02885 v -0.680288 c 0,-0.01637 0.01248,-0.02884 0.02885,-0.02884 z"/>
</svg>
